X:110078
T:110078
M:6/8
K:Cmaj
GABcBA|G2EEDE|FGAdcB|A2ddef|edcBAG|AGFEDE|ABAGED|CEACEE:|FAAcBA|GBdeBc|AGFEDE|cdcBAG|GABcBA|GABcBA|dedcBA|GBAGEC:|

